build/img/icon-category/icon-category-17.svg

<svg width="26" height="24" viewBox="0 0 26 24" fill="none" xmlns="http://www.w3.org/2000/svg">
<path d="M21.0299 8.99998V21C21.0299 21.5304 20.8184 22.0391 20.4419 22.4142C20.0655 22.7893 19.555 23 19.0226 23H6.97895C6.44659 23 5.93603 22.7893 5.5596 22.4142C5.18316 22.0391 4.97168 21.5304 4.97168 21V8.99998" stroke="#2C8ECC" stroke-width="2" stroke-miterlimit="10" stroke-linecap="square"/>
<path d="M1.96094 4.99999H24.0409" stroke="#2C8ECC" stroke-width="2" stroke-miterlimit="10" stroke-linecap="square"/>
<path d="M13.001 12V18" stroke="#2C8ECC" stroke-width="2" stroke-miterlimit="10" stroke-linecap="square"/>
<path d="M8.98633 12V18" stroke="#2C8ECC" stroke-width="2" stroke-miterlimit="10" stroke-linecap="square"/>
<path d="M17.0156 12V18" stroke="#2C8ECC" stroke-width="2" stroke-miterlimit="10" stroke-linecap="square"/>
<path d="M8.98633 5V1H17.0154V5" stroke="#2C8ECC" stroke-width="2" stroke-miterlimit="10"/>
</svg>

<svg width="26" height="24" fill="none" xmlns="http://www.w3.org/2000/svg"><path d="M21.03 9v12c0 .53-.212 1.04-.588 1.414a2.01 2.01 0 01-1.42.586H6.98a2.01 2.01 0 01-1.42-.586A1.996 1.996 0 014.973 21V9M1.96 5h22.08m-11.039 7v6m-4.015-6v6m8.03-6v6" stroke="#2C8ECC" stroke-width="2" stroke-miterlimit="10" stroke-linecap="square"/><path d="M8.986 5V1h8.03v4" stroke="#2C8ECC" stroke-width="2" stroke-miterlimit="10"/></svg>
